X: 1
T: Pugwash and Tatamagouche
T: 8x32R 3C (Ron Wallace)
P: Pugwash and Tatamagouche
C: Ron Wallace
C: Arr. T. Traub 10-16-2014
R: reel
M: 4/4
K: A
L: 1/8
|: AB|"A"cBcA cBcA|"F#m"Aaga fedc|"Bm"dcdB dcdB|"Bm"dagf "E"edcB|"A"cBcA cBcA|"F#m"Aaga fedc|"Bm"Bagf "E"edcB|"A"c2 A2 A2 :|
|: e2 |"A"agae agae|"F#m"ABcd agfe|"Bm"dcdB dcdB|"Bm"dfba "E"gfeg|"A"agae agae|"F#m"ABcd agfe|"D"dagf "E"edcB |"A"c2 A2 A2 :|

